!!!COM:	Bach, Johann Sebastian
!!!OMV:	Ach lieben Christen, seid getrost
!!!OTL:	Ach lieben Christen, seid getrost
**kern	**fb	**kern	**kern	**kern	**kern
*part5	*part5	*part4	*part3	*part2	*part1
*staff5	*	*staff4	*staff3	*staff2	*staff1
*I"Continuo	*	*I"Voice	*I"Voice	*I"Voice	*I"Voice
*I'Cont.	*	*I'V	*I'V	*I'V	*I'V
*clefF4	*	*clefF4	*clefGv2	*clefG2	*clefG2
*Trd0c0	*	*	*	*	*
*k[b-e-]	*	*k[b-e-]	*k[b-e-]	*k[b-e-]	*k[b-e-]
*M4/4	*	*M4/4	*M4/4	*M4/4	*M4/4
4G	.	4G	4d	4g	4b-
=2	=2	=2	=2	=2	=2
4D	6	4D	8dL	4f	4b-
.	.	.	8cJ	.	.
8E-L	.	8E-L	4B-	4e-	8gL
8FJ	.	8FJ	.	.	8aJ
8GL	5	8GL	4B-	4d	8b-L
8AJ	.	8AJ	.	.	8ccJ
4B-	.	4B-	4F	4d	4dd
=3	=3	=3	=3	=3	=3
4E-	6 5	4E-	4G	4e-	4cc
4F	.	4F	4A	16e-LL	4cc
.	.	.	.	16dJ	.
.	.	.	.	8e-J	.
4BB-;	.	4BB-;	4F;	4d;	4b-;
4GG	.	4GG	4G	4d	4b-
=4	=4	=4	=4	=4	=4
4D	#	4D	8F#XL	8dL	4a
.	.	.	8e-J	8ccJ	.
8EnL	7	8EnL	8dL	8b-L	8gL
8F#XJ	6 5	8F#XJ	8cJ	8aJ	8aJ
8GL	.	8GL	8B-L	4g	4b-
8Fn	.	8Fn	8AJ	.	.
8E-X	6	8E-X	4G	8gL	8ccL
8DJ	6 4	8DJ	.	8fJ	8b-J
=	=	=	=	=	=
4C	6 5	4C	4G	4e-	2a
4D	#	4D	4F#X	8dL	.
.	.	.	.	8cJ	.
4GG;	.	4GG;	4G;	4B-;	4g;
=5:|!	=5:|!	=5:|!	=5:|!	=5:|!	=5:|!
4AA	6	4AA	4Fn	4f	4cc
=6	=6	=6	=6	=6	=6
!!linebreak:original
8BB-L	.	8BB-L	4B-	4f	4dd
8CJ	.	8CJ	.	.	.
8DL	6	8DL	4B-	4f	4dd
8E-J	.	8E-J	.	.	.
8FL	.	8FL	4f	4.c	8aL
8GJ	.	8GJ	.	.	8b-J
8AL	#6\ 4 3	8AL	8f#XL	.	4cc
8F#XJ	6 5	8F#XJ	8AJ	8a	.
=7	=7	=7	=7	=7	=7
8GL	9	8GL	8B-L	8a	4b-
8AJ	.	8AJ	8cJ	16gLL	.
.	.	.	.	16f#XJJ	.
8B-L	6	8B-L	4d	4g	4b-
8cJ	.	8cJ	.	.	.
4d;	#	4d;	4d;	4f#;	4a;
8GL	.	8GL	4d	4g	4b-
8FJ	.	8FnJ	.	.	.
=8	=8	=8	=8	=8	=8
8E-L	6	8E-L	4G	8gL	4cc
8DJ	.	8DJ	.	8fnJ	.
4C	5	4C	4c	4e-	8gL
.	6	.	.	.	8aJ
4GG	5	4GG	4B-	8dL	4b-
.	nr6	.	.	8enJ	.
8AAL	6	8AAL	4c	4f	4a
8BB-J	.	8BB-J	.	.	.
=9	=9	=9	=9	=9	=9
8CL	5 4	8CL	8cL	4f	4g
8BB-J	.	8BB-J	8GJ	.	.
4C	n	4C	8cL	4en	4g
.	.	.	8B-J	.	.
4FF;	3	4FF;	4A;	4c;	4f;
8DL	6	8DL	8FL	4d	4b-
8EnJ	7 5	8EnJ	8GJ	.	.
=10	=10	=10	=10	=10	=10
!!pagebreak:original
4F	5	4F	8AL	8cL	4a
.	6	.	8B-J	8dJ	.
4C	5 n	4C	4c	8enL	8gL
.	6	.	.	8f#XJ	8aJ
8GL	.	8GL	4d	4g	4b-
8FJ	.	8FnJ	.	.	.
8E-L	6	8E-L	8cL	4g	8ccL
8DJ	6 4	8DJ	8dJ	.	8b-J
=11	=11	=11	=11	=11	=11
4C	6 5	4C	8e-L	4g	2a
.	.	.	8A	.	.
4D	#	4D	8d	4f#X	.
.	.	.	8cJ	.	.
4GG;	n	4GG;	4Bn;	4d;	4g;
=||	=||	=||	=||	=||	=||
*-	*-	*-	*-	*-	*-
!!!system-decoration: s1,s2,s3,s4,s5
